icons/line/sun.svg

<svg width="24" height="24" viewBox="0 0 24 24" fill="none" xmlns="http://www.w3.org/2000/svg">
<path d="M12 3V4M12 20V21M20 12H21M4 12H3M5 5L6 6M18 6L19 5M19 19L18 18M6 18L5 19M16 12C16 14.2091 14.2091 16 12 16C9.79086 16 8 14.2091 8 12C8 9.79086 9.79086 8 12 8C14.2091 8 16 9.79086 16 12Z" stroke="currentColor" stroke-width="2" stroke-linecap="round" stroke-linejoin="round"/>
</svg>

<svg width="24" height="24" fill="none" xmlns="http://www.w3.org/2000/svg"><path d="M12 3v1m0 16v1m8-9h1M4 12H3m2-7l1 1m12 0l1-1m0 14l-1-1M6 18l-1 1m11-7a4 4 0 11-8 0 4 4 0 018 0z" stroke="currentColor" stroke-width="2" stroke-linecap="round" stroke-linejoin="round"/></svg>
